svgs/regular/plane-departure.svg

<svg xmlns="http://www.w3.org/2000/svg" viewBox="0 0 640 512"><!-- Font Awesome Pro 6.0.0-alpha2 by @fontawesome - https://fontawesome.com License - https://fontawesome.com/license (Commercial License) --><path d="M615.989 464.001H24.023C10.769 464.001 0.024 474.746 0.024 488.001V488.001C0.024 501.255 10.769 512 24.023 512H615.989C629.243 512 639.987 501.255 639.987 488.001V488.001C639.987 474.746 629.243 464.001 615.989 464.001ZM74.645 367.753C83.769 378.128 96.894 384.003 110.643 384.003H110.893L235.136 383.503C247.135 383.503 259.259 380.378 270.259 374.628L550.493 226.756C580.491 210.882 604.865 188.632 620.989 162.633C640.487 131.134 644.987 104.134 634.488 82.135C624.113 60.385 600.99 48.136 565.742 45.761C562.492 45.511 559.242 45.386 555.992 45.386C529.244 45.386 501.87 52.635 474.872 66.885L386.252 113.759L385.877 113.884L385.502 113.759L184.514 35.261C171.514 30.261 157.015 31.011 144.641 37.511L108.768 56.51C93.644 64.51 84.019 79.76 83.144 96.759C82.394 113.759 90.644 129.884 104.893 139.133L208.762 207.007L209.137 207.257L208.762 207.382L141.891 242.631L141.516 242.881L141.141 242.631L86.519 214.007C79.645 210.382 71.895 208.507 64.145 208.507C56.521 208.507 48.771 210.382 41.772 214.132L25.648 222.632C12.648 229.506 3.399 242.006 0.774 256.381C-1.851 270.88 2.274 285.755 12.023 296.88L74.645 367.753ZM64.145 256.506L141.641 297.13L303.632 211.632L131.142 99.009L167.015 80.01L388.877 166.633L497.371 109.384C517.37 98.759 537.118 93.384 555.992 93.384C558.117 93.384 560.367 93.509 562.492 93.634C577.491 94.634 588.99 98.259 591.24 102.884C593.24 107.259 591.615 118.884 580.241 137.383C568.617 156.133 550.493 172.383 527.994 184.257L247.76 332.254C243.76 334.379 239.26 335.504 234.886 335.504L110.643 336.004L48.021 265.006L64.145 256.506Z"/></svg>

<svg xmlns="http://www.w3.org/2000/svg" viewBox="0 0 640 512"><!-- Font Awesome Pro 5.15.1 by @fontawesome - https://fontawesome.com License - https://fontawesome.com/license (Commercial License) --><path d="M624 464H16c-8.84 0-16 7.16-16 16v16c0 8.84 7.16 16 16 16h608c8.84 0 16-7.16 16-16v-16c0-8.84-7.16-16-16-16zM74.64 367.77A48.002 48.002 0 0 0 110.62 384h.21l124.25-.54c12.03-.02 24.23-3.07 35.13-8.82L550.46 226.7c30.06-15.87 54.47-38.04 70.58-64.11 19.42-31.42 23.95-58.48 13.46-80.44-10.38-21.78-33.53-34.06-68.79-36.44-3.23-.22-6.46-.32-9.68-.32-26.8 0-54.1 7.23-81.12 21.5l-88.68 46.82-.36.19-.39-.15-201-78.46a47.99 47.99 0 0 0-39.86 2.26L108.7 56.52a48.002 48.002 0 0 0-3.84 82.64l103.92 67.88.29.19-.35.18-66.79 35.26-.42.22-.42-.22-54.64-28.65a47.96 47.96 0 0 0-22.29-5.49c-7.7 0-15.4 1.85-22.41 5.55l-16.16 8.53A47.987 47.987 0 0 0 .78 256.42a47.981 47.981 0 0 0 11.23 40.4l62.63 70.95zM64.16 256.52l77.43 40.6 161.98-85.51L131.11 98.97 167.03 80l221.83 86.59 108.46-57.25c20.05-10.59 39.81-15.95 58.72-15.95 2.14 0 4.29.07 6.44.21 15.03 1.02 26.56 4.71 28.71 9.24 2.08 4.36.46 16.01-10.98 34.51-11.62 18.8-29.66 35.02-52.16 46.9L247.81 332.19c-4.04 2.13-8.52 3.26-12.94 3.27l-124.25.54L48 265.05l16.16-8.53z"/></svg>
